packages/ffe-icons/icons/filled/sm/more_horiz.svg

<svg xmlns="http://www.w3.org/2000/svg" height="20" viewBox="0 -960 960 960" width="20"><path d="M273.019-428.001q-21.537 0-36.662-15.337-15.124-15.337-15.124-36.874 0-21.537 15.337-36.662t36.874-15.125q21.537 0 36.661 15.337 15.125 15.337 15.125 36.874 0 21.537-15.337 36.662t-36.874 15.125Zm206.769 0q-21.537 0-36.662-15.337t-15.125-36.874q0-21.537 15.337-36.662t36.874-15.125q21.537 0 36.662 15.337t15.125 36.874q0 21.537-15.337 36.662t-36.874 15.125Zm206.768 0q-21.537 0-36.661-15.337-15.125-15.337-15.125-36.874 0-21.537 15.337-36.662t36.874-15.125q21.537 0 36.662 15.337 15.124 15.337 15.124 36.874 0 21.537-15.337 36.662t-36.874 15.125Z"/></svg>

<svg xmlns="http://www.w3.org/2000/svg" height="20" viewBox="0 -960 960 960" width="20"><path d="M273.02-428q-21.54 0-36.66-15.34-15.13-15.34-15.13-36.87 0-21.54 15.34-36.66Q251.91-532 273.44-532q21.54 0 36.67 15.34 15.12 15.34 15.12 36.87 0 21.54-15.34 36.66Q294.56-428 273.02-428Zm206.77 0q-21.54 0-36.66-15.34Q428-458.68 428-480.21q0-21.54 15.34-36.66Q458.68-532 480.21-532q21.54 0 36.66 15.34Q532-501.32 532-479.79q0 21.54-15.34 36.66Q501.32-428 479.79-428Zm206.77 0q-21.54 0-36.67-15.34-15.12-15.34-15.12-36.87 0-21.54 15.34-36.66Q665.44-532 686.98-532t36.66 15.34q15.13 15.34 15.13 36.87 0 21.54-15.34 36.66Q708.09-428 686.56-428Z"/></svg>
